app/dist/common/images/telephone-and-data-systems.svg

<svg height="18" width="18" xmlns="http://www.w3.org/2000/svg"><path d="m0 0h18v18h-18z" fill="#f0f3fa"/><path d="m14.704 7h1.155c-1.103-2.468-3.936-4-6.475-4-1.414 0-2.762.43-3.764 1.204 6.576-2.541 8.898 2.406 9.084 2.796z" fill="#7dc246"/><path d="m5.62 4.252c.457-.088 1.17-.145 1.765-.145 2.65 0 4.249 1.33 4.931 2.893h1.968c-2.457-4.642-7.84-3.03-8.664-2.748z" fill="#7dc246"/><g fill="#0079c2"><path d="m10.346 5.382h-.407c-1.319 0-2.506.638-3.098 1.618h-1.615.012c.733-1.397 2.423-1.732 3.71-1.732.678 0 1.21.083 1.355.108z"/><path d="m2.47 7c.54-1.527 2.438-2.636 4.602-2.636 1.187 0 2.324.322 3.2.906l.074.047-.083-.016c-.084-.015-.171-.034-.26-.05-.437-.084-.89-.171-1.357-.171-2.626 0-3.485 1.215-3.836 1.92zm7.254 8h-1.448v-6h-2.276v-1h6v1h-2.276z"/></g></svg>

<!-- by TradingView --><svg width="18" height="18" xmlns="http://www.w3.org/2000/svg"><path fill="#F0F3FA" d="M0 0h18v18H0z"/><path d="M14.704 7h1.155c-1.103-2.468-3.936-4-6.475-4-1.414 0-2.762.43-3.764 1.204C12.196 1.663 14.518 6.61 14.704 7z" fill="#7DC246"/><path d="M5.62 4.252c.457-.088 1.17-.145 1.765-.145 2.65 0 4.249 1.33 4.931 2.893h1.968c-2.457-4.642-7.84-3.03-8.664-2.748z" fill="#7DC246"/><path d="M10.346 5.382h-.407C8.62 5.382 7.433 6.02 6.841 7H5.226h.012c.733-1.397 2.423-1.732 3.71-1.732.678 0 1.21.083 1.355.108l.043.006z" fill="#0079C2"/><path d="M2.47 7c.54-1.527 2.438-2.636 4.602-2.636 1.187 0 2.324.322 3.2.906l.074.047-.083-.016c-.084-.015-.171-.034-.26-.05-.437-.084-.89-.171-1.357-.171C6.02 5.08 5.161 6.295 4.81 7h-2.34zM9.724 15H8.276V9H6V8h6v1H9.724v6z" fill="#0079C2"/></svg>
